icon-svg/playstation-3.svg

<svg xmlns="http://www.w3.org/2000/svg" fill="#44739e" viewBox="0 0 24 24"><path d="M6.326 9.33H0v.7374h5.9845c.3803.0155.7839.2251.7839.7762s-.3958.7607-.7684.7762H1.1798c-.0466 0-.2872.0077-.5433.1319-.3726.1863-.5822.5434-.5822.9936v1.8007h1.0091v-1.8007c0-.2717.163-.4347.4424-.4425h4.502c.5821-.0077 1.4515-.4036 1.4515-1.4592-.0156-1.1022-.59-1.5058-1.1333-1.5136m4.7193.3571c-.2406.2716-.2406.6131-.2329.7063v3.1746c0 .2329-.0931.3183-.1242.3493-.1552.1475-.4191.1553-.4967.1553h-2.903v.5433h3.392c.163 0 .5744-.031.8693-.3027.1397-.1242.3027-.3648.3027-.7529v-3.229c0-.0388 0-.1941.0932-.3027.1086-.1164.2949-.1397.4424-.1397h3.1514v-.5434h-3.6482c-.3648.0233-.652.132-.846.3416m12.4812 2.2432.0544-.0466c.2716-.2639.4113-.6132.4113-1.0401 0-1.1022-.5821-1.5058-1.1255-1.5136h-6.3492v.7374h6.0077c.3804.0155.784.2251.784.7762s-.3959.7607-.7685.7762h-6.0232v.5433h6.0077c.3105 0 .6831.1785.6831 1.0479 0 .5511-.3959.7607-.7685.7762h-5.9146v.683h6.0233C23.1307 14.6625 24 14.2666 24 13.211c0-.5356-.1397-.9625-.4114-1.2264z"/></svg>

<?xml version="1.0" encoding="UTF-8"?>
<svg xmlns="http://www.w3.org/2000/svg" viewBox="0 0 24 24" fill="#44739e">
	<path d="M6.326 9.33H0V10.0674L5.9845 10.0674C6.3648 10.0829 6.7684 10.2925 6.7684 10.8436 6.7684 11.3947 6.3726 11.6043 6 11.6198L1.1798 11.6198C1.1332 11.6198.8926 11.6275.6365 11.7517.2639 11.938.0543 12.2951.0543 12.7453V14.546H1.0634V12.7453C1.0634 12.4736 1.2264 12.3106 1.5058 12.3028L6.0078 12.3028C6.5899 12.2951 7.4593 11.8992 7.4593 10.8436 7.4437 9.7414 6.8693 9.3378 6.326 9.33ZM11.0453 9.6871C10.8047 9.9587 10.8047 10.3002 10.8124 10.3934L10.8124 10.3934V10.3934 13.568C10.8124 13.8009 10.7193 13.8863 10.6882 13.9173 10.533 14.0648 10.2691 14.0726 10.1915 14.0726 10.1759 14.0726 10.1682 14.0726 10.1527 14.0726L7.2885 14.0726V14.6159H10.6106 10.6106L10.6106 14.6159C10.6184 14.6159 10.6417 14.6159 10.6805 14.6159 10.8435 14.6159 11.2549 14.5849 11.5498 14.3132 11.6895 14.189 11.8525 13.9484 11.8525 13.5603V10.3701L11.8525 10.3313 11.8525 10.3313C11.8525 10.2925 11.8525 10.1372 11.9457 10.0286 12.0543 9.9122 12.2406 9.8889 12.3881 9.8889H15.5395V9.3455H11.8913C11.5265 9.3688 11.2393 9.4775 11.0453 9.6871ZM23.5265 11.9303 23.5809 11.8837C23.8525 11.6198 23.9922 11.2705 23.9922 10.8436 23.9922 9.7414 23.4101 9.3378 22.8667 9.33H16.5175V10.0674L22.5252 10.0674C22.9056 10.0829 23.3092 10.2925 23.3092 10.8436 23.3092 11.3947 22.9133 11.6043 22.5407 11.6198L16.5175 11.6198V11.6275 11.9924 12.1631H22.5252C22.8357 12.1631 23.2083 12.3416 23.2083 13.211 23.2083 13.7621 22.8124 13.9717 22.4398 13.9872H22.4398 22.4398 16.5252V14.6702H22.5485C23.1307 14.6625 24 14.2666 24 13.211 24 12.6754 23.8603 12.2485 23.5886 11.9846L23.5265 11.9303Z"/>
</svg>
